X:1
T:Eternal source of every joy
T:Eternal source of every joy - New Year’s Day (Thomas Jarman)
C:Thomas Jarman
Z:p12, The Wesleyan Melodist,
Z:London: [c1840]
%%score [ 1 2 3 4 ]
L:1/8
M:2/2
K:A
V:1 treble nm="Soprano" snm="S."
V:2 treble nm="Alto" snm="A."
V:3 treble-8 transpose=-12 nm="Tenor" snm="T."
V:4 bass nm="Bass" snm="B."
V:1
 E2 | A6 B2 | (c3 B A2) e2 | (d2 c2) B4 | A8 | B4 c2 A2 | (B3 c d2) (cB) | (c2 e2) (e2 ^d2) | e8 | %9
w: Thy|hand, in|au- * * tumn,|rich- * ly|pours|Through all our|coasts _ _ re- *|dun- * dant _|stores;|
w: E-|ter- nal|source _ _ of|ev- * ’ry|joy,|Well may thy|praise _ _ our _|lips _ em- *|ploy;|
w: The|flow- ’ry|spring _ _ at|thy _ com-|mand|Em- balms the|air, _ _ and _|paints _ the _|land:|
 e4 e2 c2 | (d3 c d2) B2 | (c2 e2 d2) c2 | (c4 !fermata!B2)!p! E2 | (A2 c2) (c2 A2) | %14
w: And win- ters,|soft- * * en’d|by _ _ thy|care _ No|more _ a _|
w: While in thy|tem- * * ple|we _ _ ap-|pear, _ Whose|good- * ness _|
w: The sum- mer|rays _ _ with|vi- * * gour|shine _ To|raise _ the _|
 (B2 d2) (d2 B2) | (c2 e2) (e2 c2) | (c4 B2)!f! B2 | (c2 e2) (f2 d2) | (c2 d2 e2) d2 | c4 B4 | %20
w: face _ of _|hor- * ror _|wear, _ No|more _ a _|face _ _ of|hor- ror|
w: crowns _ the _|circ- * ling _|year, _ Whose|good- * ness _|crowns _ _ the|circ- ling|
w: corn _ and _|cheer _ the _|vine, _ To|raise _ the _|corn _ _ and|cheer the|
 A8 |] %21
w: wear.|
w: year.|
w: vine.|
V:2
 E2 | E6 G2 | (A3 G A2) A2 | A4 G4 | A8 | [EG]4 A2 A2 | F6 (AG) | (A2 B2) A4 | G8 | A4 A2 A2 | %10
w: Thy|hand, in|au- * * tumn,|rich- ly|pours|Through all our|coasts re- *|dun- * dant|stores;|And win- ters,|
w: E-|ter- nal|source _ _ of|ev- ’ry|joy,|Well may thy|praise our _|lips _ em-|ploy;|While in thy|
w: The|flow- ’ry|spring _ _ at|thy com-|mand|Em- balms the|air, and _|paints _ the|land:|The sum- mer|
 A6 G2 | (A4 G2) A2 | (A4 !fermata!G2)!p! E2 | (C2 E2) E4 | (G2 B2) (B2 G2) | (A2 c2) (c2 A2) | %16
w: soft- en’d|by _ thy|care _ No|more _ a|face _ of _|hor- * ror _|
w: tem- ple|we _ ap-|pear, _ Whose|good- * ness|crowns _ the _|circ- * ling _|
w: rays with|vi- * gour|shine _ To|raise _ the|corn _ and _|cheer _ the _|
 (A4 G2)!f! G2 | A4 A4 | A6 A2 | A4 G4 | A8 |] %21
w: wear, _ No|more a|face of|hor- ror|wear.|
w: year, _ Whose|good- ness|crowns the|circ- ling|year.|
w: vine, _ To|raise the|corn and|cheer the|vine.|
V:3
 c2 | c6 e2 | e6 e2 | (f2 e2) (e2 d2) | c8 | e4 e2 e2 | (f3 e d2) e2 | (e2 B2) B4 | B8 | c4 c2 e2 | %10
w: Thy|hand, in|au- tumn,|rich- * ly _|pours|Through all our|coasts _ _ re-|dun- * dant|stores;|And win- ters,|
w: E-|ter- nal|source of|ev- * ’ry _|joy,|Well may thy|praise _ _ our|lips _ em-|ploy;|While in thy|
w: The|flow- ’ry|spring at|thy _ com- *|mand|Em- balms the|air, _ _ and|paints _ the|land:|The sum- mer|
 (d3 e f2) e2 | e6 e2 | !fermata!e6 z2 | z8 | z8 | z8 | z4 z2!f! e2 | (e2 c2) (d2 A2) | %18
w: soft- * * en’d|by thy|care||||No|more _ a _|
w: tem- * * ple|we ap-|pear,||||Whose|good- * ness _|
w: rays _ _ with|vi- gour|shine||||To|raise _ the _|
 (e2 f2 e2) f2 | e4 d4 | c8 |] %21
w: face _ _ of|hor- ror|wear.|
w: crowns _ _ the|circ- ling|year.|
w: corn _ _ and|cheer the|vine.|
V:4
 [A,,A,]2 | [A,,A,]6 E,2 | (A,,3 B,, C,2) C,2 | D,4 E,4 | A,,8 | E,4 A,2 C,2 | (D,3 C, B,,2) E,2 | %7
w: Thy|hand, in|au- * * tumn,|rich- ly|pours|Through all our|coasts _ _ re-|
w: E-|ter- nal|source _ _ of|ev- ’ry|joy,|Well may thy|praise _ _ our|
w: The|flow- ’ry|spring _ _ at|thy com-|mand|Em- balms the|air, _ _ and|
 (A,2 G,2) F,4 | E,8 | A,4 A,2 =G,2 | (F,3 E, D,2) E,2 | (A,2 C2 B,2) A,2 | !fermata!E,6!p! E,2 | %13
w: dun- * dant|stores;|And win- ters,|soft- * * en’d|by _ _ thy|care No|
w: lips _ em-|ploy;|While in thy|tem- * * ple|we _ _ ap-|pear, Whose|
w: paints _ the|land:|The sum- mer|rays _ _ with|vi- * * gour|shine To|
 A,,4 A,,4 | E,4 E,4 | %15
w: more a|face of|
w: good- ness|crowns the|
w: raise the|corn and|
"^The source gives the parts in the order Tenor - Alto - Treble - Bass (labelled as such in the first piece in the book).The treble and bass parts are bracketed together, with small notes between them to fill in the harmony of a keyboardpart doubling the voices. This accompaniment has been omitted from the present edition. Only the first verse of thetext is underlaid in the source: three subsequent verses have been added editorially." A,4 A,4 | %16
w: hor- ror|
w: circ- ling|
w: cheer the|
 E,6!f! E,2 | A,4 (D,E,F,G,) | (A,2 D,2 C,2) D,2 | E,4 E,4 | A,,8 |] %21
w: wear, No|more a _ _ _|face _ _ of|hor- ror|wear.|
w: year, Whose|good- ness _ _ _|crowns _ _ the|circ- ling|year.|
w: vine, To|raise the _ _ _|corn _ _ and|cheer the|vine.|

